X: 12143
T: EW's First
R: jig
M: 6/8
K: Dmixolydian
g3a3|g2 a gfd|ABB BAG|EGG GBd|
g3a3|g2 a gfd|ABB BAG|EGG G2 A:|
B2 E EGB|EGB d2 d|cBA BAG|AGF GFD|
B2 E EGB|EGB d2 d|cBA BAG|A3 ABA|

